X: 12422
T: Far O'er Struy
R: waltz
M: 3/4
K: Dmajor
|:u(d>B)|[DA]2 [DA]2 (d>e)|f2 A2 (f>g)|{g}a2 f2 {gf}(ed)|{fa}f2 e2 (e>f)|
g2 {g}(a>g) {fa}(fe)|d2 {Bd}B2 {B}(d>e)|{fa}f2 (A2 {Bd}BA)|[Dd]4:|
|:(e>f)|g2 {g}(a>g) {fg}(fd)|{fg}f2 e2 {fg}(f>e)|d2 {fg}(fa) (gf)|{fa}f2 e2 (e>f)|
g2 {g}(a>g) {fa}(fe)|d2 {Bd}B2 {B}(d>e)|{fa}f2 (A2 {Bd}BA)|[Dd]4:|

